X:424
T:
S:Ur von Baumgartens samling, Visby.
R:vals
O:Gotland, Visby
M:3/4
L:1/8
K:G
D2|D4 G2|B4 G2|D4 G2|B4 G2|F4 d2|d2 e2 f2|(a2 g2) g2|
g4::(3def|g2 g2 g2|g3 dgb|ac' f2f2|gbddef|g2 g2 g2|g3 dgb|
ac'afdf|g4::D2|G2 B2 G2|e2 d4|G2 B2 G2|AGFE D2|G2 B2 G2|
e2 d4|c2 A2 F2|G4::g2|f2 e2 d2|g2 d4|f2 e2 d2|g2 d4|
G2B2 G2|e2 d4|A2 AGAB|G4:|

